X: 2
T: Last May a' Braw Wooer
R: jig
M: 6/8
L: 1/8
K: F
z \
| "F"FGF AGA | "C7"GFG "F"F2G | "F"AGA FAc \
| "Bb"d3 "C7"cde | "F"fed cfA | "C7"GFG "F"AFD |
| "F"CDC CDE | "F"FGA "C7"GFG | "F"AcC CFA | "C7"G3 "F"F2 \
:: c \
| "F"Acc Acc | "C7"GAB "F"A2c | "F"Acc Acc |
| "Bb"Bcd "F"cde | "Bb"fed "F"cfA | "C7"GFG "F"AFD \
| "F"CDC CDE | "F"FGA "C7"GFG | "F"AcC CFA | "C7"G3 "F"F2 :|

